_src/static/img/icon/diagram.svg

<svg width="64" height="65" viewBox="0 0 64 65" fill="none" xmlns="http://www.w3.org/2000/svg">
<path d="M60.8 61.9003V22.4336C60.8 21.8445 60.3224 21.3669 59.7333 21.3669H49.0667C48.4776 21.3669 48 21.8445 48 22.4336V61.9003H45.8667V37.3669C45.8667 36.7779 45.3891 36.3003 44.8 36.3003H34.1333C33.5443 36.3003 33.0667 36.7779 33.0667 37.3669V61.9003H30.9333V26.7003C30.9333 26.1112 30.4557 25.6336 29.8667 25.6336H19.2C18.6109 25.6336 18.1333 26.1112 18.1333 26.7003V61.9003H16V41.6336C16 41.0445 15.5224 40.5669 14.9333 40.5669H4.26667C3.6776 40.5669 3.2 41.0445 3.2 41.6336V61.9003H0V64.0336H64V61.9003H60.8ZM13.8667 61.9003H5.33333V42.7003H13.8667V61.9003ZM28.8 61.9003H20.2667V27.7669H28.8V61.9003ZM43.7333 61.9003H35.2V38.4336H43.7333V61.9003ZM58.6667 61.9003H50.1333V23.5003H58.6667V61.9003Z" fill="url(#paint0_linear)"/>
<path d="M6.65844 29.016C7.53097 29.5928 8.5539 29.9004 9.5999 29.9003C12.5454 29.9001 14.9331 27.5123 14.933 24.5667C14.933 23.5211 14.6255 22.4984 14.049 21.6261L21.5988 14.0752C22.4642 14.6543 23.4814 14.9645 24.5226 14.9669C24.8366 14.9671 25.1499 14.9396 25.4591 14.8848C26.4739 14.7069 27.4147 14.2368 28.1663 13.5323L34.4948 18.3973C33.4386 21.1469 34.8112 24.2323 37.5608 25.2885C40.3104 26.3448 43.3958 24.9721 44.452 22.2225C45.0715 20.61 44.8716 18.7973 43.9156 17.3584L51.4634 9.81067C53.927 11.4413 57.246 10.766 58.8766 8.3024C60.5072 5.8388 59.8319 2.51973 57.3683 0.889199C54.9047 -0.741468 51.5856 -0.0661341 49.9551 2.39747C48.7703 4.18747 48.7703 6.5124 49.9551 8.3024L42.4074 15.8501C40.2934 14.4528 37.488 14.7359 35.6959 16.5275C35.6756 16.5477 35.6639 16.5712 35.6447 16.5904L29.4079 11.7968C30.6059 9.10586 29.3956 5.95333 26.7047 4.75533C24.0138 3.55733 20.8612 4.7676 19.6632 7.45853C18.9223 9.12293 19.0822 11.0505 20.0874 12.57L12.5407 20.1177C10.0835 18.4933 6.77484 19.1685 5.15044 21.6257C3.52617 24.0829 4.20124 27.3916 6.65844 29.016ZM54.3999 2.16693C56.1672 2.16693 57.5999 3.5996 57.5999 5.36693C57.5999 7.13426 56.1672 8.56693 54.3999 8.56693C52.6326 8.56693 51.1999 7.13426 51.1999 5.36693C51.1999 3.5996 52.6326 2.16693 54.3999 2.16693ZM37.2027 18.0383C37.803 17.4376 38.6174 17.1001 39.4666 17.1003C41.2339 17.1 42.6667 18.5325 42.667 20.2999C42.6671 21.1491 42.3296 21.9635 41.729 22.5637C40.4623 23.7711 38.4708 23.7711 37.2042 22.5637C35.954 21.3144 35.9535 19.2883 37.2027 18.0383ZM21.9122 7.79826C21.9123 7.79813 21.9123 7.798 21.9124 7.79787C22.3975 7.10107 23.141 6.62707 23.9775 6.4816C24.1632 6.44973 24.3512 6.43373 24.5396 6.4336C25.1944 6.43427 25.8331 6.63653 26.369 7.0128C27.8166 8.02667 28.1683 10.022 27.1544 11.4696C26.1406 12.9172 24.1452 13.2688 22.6976 12.2551C21.25 11.2412 20.8983 9.24586 21.9122 7.79826ZM7.33604 22.3049C7.33657 22.3044 7.33697 22.304 7.3375 22.3035C8.58764 21.054 10.6139 21.0544 11.8634 22.3045C13.1128 23.5547 13.1124 25.5809 11.8623 26.8304C10.5956 28.0377 8.60417 28.0377 7.3375 26.8304C6.08737 25.5811 6.08684 23.5549 7.33604 22.3049Z" fill="url(#paint1_linear)"/>
<defs>
<linearGradient id="paint0_linear" x1="-32" y1="42.7003" x2="7.38462" y2="101.777" gradientUnits="userSpaceOnUse">
<stop stop-color="#F0CD46"/>
<stop offset="1" stop-color="#EE5768"/>
</linearGradient>
<linearGradient id="paint1_linear" x1="-23.4844" y1="14.9501" x2="1.48532" y2="61.2984" gradientUnits="userSpaceOnUse">
<stop stop-color="#F0CD46"/>
<stop offset="1" stop-color="#EE5768"/>
</linearGradient>
</defs>
</svg>

<svg width="64" height="65" fill="none" xmlns="http://www.w3.org/2000/svg"><path d="M60.8 61.9V22.434c0-.59-.478-1.067-1.067-1.067H49.067c-.59 0-1.067.477-1.067 1.067V61.9h-2.133V37.367c0-.59-.478-1.067-1.067-1.067H34.133c-.589 0-1.066.478-1.066 1.067V61.9h-2.134V26.7c0-.589-.477-1.066-1.066-1.066H19.2c-.59 0-1.067.477-1.067 1.066v35.2H16V41.634c0-.59-.478-1.067-1.067-1.067H4.267c-.59 0-1.067.477-1.067 1.067V61.9H0v2.134h64V61.9h-3.2zm-46.933 0H5.333V42.7h8.534v19.2zm14.933 0h-8.533V27.767H28.8V61.9zm14.933 0H35.2V38.434h8.533V61.9zm14.934 0h-8.534V23.5h8.534v38.4z" fill="url(#paint0_linear)"/><path d="M6.658 29.016a5.333 5.333 0 007.391-7.39l7.55-7.55a5.279 5.279 0 003.86.809 5.296 5.296 0 002.707-1.353l6.329 4.865a5.333 5.333 0 109.42-1.039l7.548-7.547a5.35 5.35 0 10-1.508-1.509l-7.548 7.548a5.333 5.333 0 00-6.711.678c-.02.02-.032.043-.051.062l-6.237-4.793a5.333 5.333 0 10-9.32.773l-7.547 7.548a5.333 5.333 0 10-5.883 8.898zM54.4 2.166a3.2 3.2 0 110 6.4 3.2 3.2 0 010-6.4zM37.203 18.039a3.2 3.2 0 114.526 4.526 3.279 3.279 0 01-4.525 0 3.2 3.2 0 01-.001-4.526zm-15.29-10.24a3.18 3.18 0 012.627-1.364A3.2 3.2 0 1121.913 7.8zM7.335 22.305l.002-.002a3.2 3.2 0 114.524 4.527 3.28 3.28 0 01-4.524 0 3.2 3.2 0 01-.002-4.525z" fill="url(#paint1_linear)"/><defs><linearGradient id="paint0_linear" x1="-32" y1="42.7" x2="7.385" y2="101.777" gradientUnits="userSpaceOnUse"><stop stop-color="#F0CD46"/><stop offset="1" stop-color="#EE5768"/></linearGradient><linearGradient id="paint1_linear" x1="-23.484" y1="14.95" x2="1.485" y2="61.298" gradientUnits="userSpaceOnUse"><stop stop-color="#F0CD46"/><stop offset="1" stop-color="#EE5768"/></linearGradient></defs></svg>
